icons/svg/transport/runway.svg

<?xml version="1.0" encoding="UTF-8" standalone="no"?>
<!-- Created with Inkscape (http://www.inkscape.org/) -->

<svg
   xmlns:dc="http://purl.org/dc/elements/1.1/"
   xmlns:cc="http://creativecommons.org/ns#"
   xmlns:rdf="http://www.w3.org/1999/02/22-rdf-syntax-ns#"
   xmlns:svg="http://www.w3.org/2000/svg"
   xmlns="http://www.w3.org/2000/svg"
   xmlns:sodipodi="http://sodipodi.sourceforge.net/DTD/sodipodi-0.dtd"
   xmlns:inkscape="http://www.inkscape.org/namespaces/inkscape"
   inkscape:output_extension="org.inkscape.output.svg.inkscape"
   sodipodi:docname="runway.svg"
   inkscape:version="0.91 r"
   sodipodi:version="0.32"
   id="svg2"
   height="580"
   width="580"
   version="1.0">
  <sodipodi:namedview
     inkscape:window-maximized="1"
     inkscape:current-layer="svg2"
     inkscape:window-y="1024"
     inkscape:window-x="34"
     inkscape:cy="232.10406"
     inkscape:cx="498.73185"
     inkscape:zoom="0.70710678"
     showgrid="false"
     id="base"
     pagecolor="#ffffff"
     bordercolor="#666666"
     borderopacity="1.0"
     objecttolerance="10.0"
     gridtolerance="10.0"
     guidetolerance="10.0"
     inkscape:pageopacity="0.0"
     inkscape:pageshadow="2"
     inkscape:window-width="1332"
     inkscape:window-height="739" />
  <metadata
     id="metadata10">
    <rdf:RDF>
      <cc:Work
         rdf:about="">
        <dc:format>image/svg+xml</dc:format>
        <dc:type
           rdf:resource="http://purl.org/dc/dcmitype/StillImage" />
        <cc:license
           rdf:resource="http://web.resource.org/cc/PublicDomain" />
        <dc:language>en</dc:language>
      </cc:Work>
    </rdf:RDF>
  </metadata>
  <defs
     id="defs4">
    <inkscape:perspective
       id="perspective12"
       inkscape:persp3d-origin="290 : 193.33333 : 1"
       inkscape:vp_z="580 : 290 : 1"
       inkscape:vp_y="0 : 1000 : 0"
       inkscape:vp_x="0 : 290 : 1"
       sodipodi:type="inkscape:persp3d" />
    <style
       id="style6"
       type="text/css">
   
    .fil0 {fill:#EF7900}
   
  </style>
    <inkscape:perspective
       sodipodi:type="inkscape:persp3d"
       inkscape:vp_x="0 : 29.116032 : 1"
       inkscape:vp_y="0 : 1000 : 0"
       inkscape:vp_z="58.232063 : 29.116032 : 1"
       inkscape:persp3d-origin="29.116032 : 19.410688 : 1"
       id="perspective6807" />
    <inkscape:perspective
       sodipodi:type="inkscape:persp3d"
       inkscape:vp_x="0 : 290 : 1"
       inkscape:vp_y="0 : 1000 : 0"
       inkscape:vp_z="580 : 290 : 1"
       inkscape:persp3d-origin="290 : 193.33333 : 1"
       id="perspective6954" />
    <marker
       id="ArrowStart"
       markerHeight="3"
       markerUnits="strokeWidth"
       markerWidth="4"
       orient="auto"
       refX="10"
       refY="5"
       viewBox="0 0 10 10">
      <path
         d="M 10 0 L 0 5 L 10 10 z"
         id="path2295" />
    </marker>
    <marker
       id="ArrowEnd"
       markerHeight="3"
       markerUnits="strokeWidth"
       markerWidth="4"
       orient="auto"
       refX="0"
       refY="5"
       viewBox="0 0 10 10">
      <path
         d="M 0 0 L 10 5 L 0 10 z"
         id="path2292" />
    </marker>
    <inkscape:perspective
       sodipodi:type="inkscape:persp3d"
       inkscape:vp_x="0 : 237.7245 : 1"
       inkscape:vp_y="0 : 1000 : 0"
       inkscape:vp_z="357.08099 : 237.7245 : 1"
       inkscape:persp3d-origin="178.5405 : 158.483 : 1"
       id="perspective7597" />
  </defs>
  <g
     id="g1327">
    <path
       id="path1329"
       style="fill:#111111;stroke:#eeeeee;stroke-width:3.40799999"
       d="M 66.275,1.768 C 24.94,1.768 1.704,23.139 1.704,66.804 L 1.704,516.927 C 1.704,557.771 22.598,579.156 63.896,579.156 L 515.92,579.156 C 557.227,579.156 578.149,558.84 578.149,516.927 L 578.149,66.804 C 578.149,24.203 557.227,1.768 514.627,1.768 C 514.624,1.768 66.133,1.625 66.275,1.768 z" />
  </g>
  <g
     transform="translate(879.29125,36.805119)"
     id="g2319">
    <path
       d=""
       style="fill:#ffffff;stroke:none"
       id="path2323" />
  </g>
  <g
     transform="translate(879.29125,36.805119)"
     id="g2325">
    <path
       d=""
       style="fill:#ffffff;stroke:none"
       id="path2329" />
  </g>
  <path
     style="fill:#ffffff;fill-opacity:1"
     id="path4"
     d="m 283.22469,38.194239 c -11.1646,11.1646 -16.84259,43.552472 -16.59633,51.643322 l 0,40.053699 -80.84914,61.56403 c -1.04734,0.79811 -1.59696,2.09837 -1.57619,3.43053 l 0.27814,20.49044 c 0.0208,1.40336 0.76622,2.67098 1.94706,3.43053 1.18085,0.75952 2.60646,0.93458 3.89411,0.37086 l 76.39874,-33.37809 0.5563,57.11362 -13.62939,13.62938 c -0.70317,0.70317 -1.13115,1.69487 -1.20532,2.6888 l -1.85433,21.88119 c -0.12758,1.56951 0.70168,3.06633 2.03976,3.89411 1.3381,0.82778 3.01071,0.90566 4.3577,0.0927 l 35.23242,-21.32489 35.23244,21.32489 c 1.25797,0.75953 2.87274,0.77511 4.17225,0.0927 1.30546,-0.67053 2.04038,-1.96795 2.13249,-3.43053 l 1.20532,-19.00696 c 0.0742,-1.20161 -0.35381,-2.39358 -1.20531,-3.24509 l -16.50362,-16.50361 0.74174,-57.48449 76.12059,33.65624 c 1.28468,0.56669 2.71326,0.38867 3.8941,-0.37087 0.25518,-0.16613 0.53093,-0.34579 0.74159,-0.55645 0.76547,-0.76547 1.18737,-1.77067 1.20532,-2.87423 l 0.27815,-20.49043 c 0.0178,-1.32919 -0.51995,-2.62351 -1.57618,-3.43053 l -80.84916,-61.56403 0,-40.053699 c 0.003,-8.19766 -7.05316,-55.501824 -25.68258,-55.908298 -3.15089,0.07121 -6.15047,1.514625 -8.90082,4.264978 z"
     inkscape:connector-curvature="0" />
  <path
     inkscape:connector-curvature="0"
     id="path4184"
     d="m 73.781906,546.07092 c 0,0 138.436184,-238.22654 138.436184,-238.22654 0,0 20.6102,0 20.6102,0 0,0 -102.40664,238.22654 -102.40664,238.22654 0,0 -56.639744,0 -56.639744,0 0,0 0,0 0,0 m 192.152074,0 c 0,0 2.37669,-34.93959 2.37669,-34.93959 0,0 43.64148,0 43.64148,0 0,0 2.11386,34.93959 2.11386,34.93959 0,0 -48.13203,0 -48.13203,0 0,0 0,0 0,0 m 183.64437,0 c 0,0 -100.61459,-238.22654 -100.61459,-238.22654 0,0 20.6102,0 20.6102,0 0,0 136.64413,238.22654 136.64413,238.22654 0,0 -56.63974,0 -56.63974,0 0,0 0,0 0,0 M 270.00823,486.17563 c 0,0 3.39511,-49.91138 3.39511,-49.91138 0,0 34.01933,0 34.01933,0 0,0 3.01965,49.91138 3.01965,49.91138 0,0 -40.43409,0 -40.43409,0 0,0 0,0 0,0 m 5.09267,-74.86707 c 0,0 3.39512,-49.91139 3.39512,-49.91139 0,0 24.39716,0 24.39716,0 0,0 3.01966,49.91139 3.01966,49.91139 0,0 -30.81194,0 -30.81194,0 0,0 0,0 0,0 m 5.09267,-74.86708 c 0,0 1.94526,-28.5971 1.94526,-28.5971 0,0 17.51439,0 17.51439,0 0,0 1.73014,28.5971 1.73014,28.5971 0,0 -21.18979,0 -21.18979,0 0,0 0,0 0,0"
     style="color:#000000;font-style:normal;font-variant:normal;font-weight:normal;font-stretch:normal;font-size:medium;line-height:normal;font-family:sans-serif;text-indent:0;text-align:start;text-decoration:none;text-decoration-line:none;text-decoration-style:solid;text-decoration-color:#000000;letter-spacing:normal;word-spacing:normal;text-transform:none;direction:ltr;block-progression:tb;writing-mode:lr-tb;baseline-shift:baseline;text-anchor:start;white-space:normal;clip-rule:nonzero;display:inline;overflow:visible;visibility:visible;opacity:1;isolation:auto;mix-blend-mode:normal;color-interpolation:sRGB;color-interpolation-filters:linearRGB;solid-color:#000000;solid-opacity:1;fill:#ffffff;fill-opacity:1;fill-rule:evenodd;stroke:none;stroke-width:24;stroke-linecap:butt;stroke-linejoin:miter;stroke-miterlimit:4;stroke-dasharray:none;stroke-dashoffset:0;stroke-opacity:1;color-rendering:auto;image-rendering:auto;shape-rendering:auto;text-rendering:auto;enable-background:accumulate" />
</svg>

<svg width="580" height="580" viewBox="0 0 580 580" fill="none" xmlns="http://www.w3.org/2000/svg">
<g clip-path="url(#clip0)">
<path d="M66.2751 1.76766C24.9401 1.76766 1.7041 23.1387 1.7041 66.8037V516.927C1.7041 557.771 22.5981 579.156 63.8961 579.156H515.92C557.227 579.156 578.149 558.84 578.149 516.927V66.8037C578.149 24.2027 557.227 1.76766 514.627 1.76766C514.624 1.76766 66.1331 1.62466 66.2751 1.76766Z" fill="#111111" stroke="#EEEEEE" stroke-width="3.408"/>
<path d="M283.225 38.1939C272.06 49.3585 266.382 81.7463 266.629 89.8372V129.891L185.779 191.455C184.732 192.253 184.182 193.553 184.203 194.885L184.481 215.376C184.502 216.779 185.248 218.047 186.428 218.806C187.609 219.566 189.035 219.741 190.323 219.177L266.721 185.799L267.278 242.913L253.648 256.542C252.945 257.245 252.517 258.237 252.443 259.231L250.589 281.112C250.461 282.682 251.29 284.179 252.628 285.006C253.966 285.834 255.639 285.912 256.986 285.099L292.218 263.774L327.451 285.099C328.709 285.859 330.324 285.874 331.623 285.192C332.929 284.521 333.663 283.224 333.756 281.761L334.961 262.754C335.035 261.553 334.607 260.361 333.756 259.509L317.252 243.005L317.994 185.521L394.114 219.177C395.399 219.744 396.828 219.566 398.008 218.806C398.264 218.64 398.539 218.461 398.75 218.25C399.515 217.484 399.937 216.479 399.955 215.376L400.233 194.885C400.251 193.556 399.714 192.262 398.657 191.455L317.808 129.891V89.837C317.811 81.6393 310.755 34.3352 292.126 33.9287C288.975 33.9999 285.975 35.4433 283.225 38.1937L283.225 38.1939Z" fill="white"/>
<path fill-rule="evenodd" clip-rule="evenodd" d="M73.7817 546.07L212.218 307.844H232.828L130.421 546.07H73.7817V546.07ZM265.934 546.07L268.311 511.131H311.952L314.066 546.07H265.934ZM449.578 546.07L348.964 307.844H369.574L506.218 546.07H449.578V546.07ZM270.008 486.175L273.403 436.264H307.423L310.442 486.175H270.008ZM275.101 411.308L278.496 361.397H302.893L305.913 411.308H275.101ZM280.193 336.441L282.139 307.844H299.653L301.383 336.441H280.193Z" fill="white"/>
</g>
<defs>
<clipPath id="clip0">
<path d="M0 0H580V580H0V0Z" fill="white"/>
</clipPath>
</defs>
</svg>
